src/assets/img/shape-pill-1.svg

<svg fill="none" height="155" viewBox="0 0 128 155" width="128" xmlns="http://www.w3.org/2000/svg"><path d="m35.6874 150.724c-6.755-2.44-12.9479-6.152-18.2239-10.921s-9.53144-10.503-12.52252-16.873c-2.99107-6.369-4.658989-13.25-4.9082121-20.246-.2492229-6.9972.9251541-13.973 3.4558521-20.5281l18.24418-47.3914c2.5125-6.5618 6.3331-12.5775 11.2429-17.7026 4.9099-5.1251 10.8124-9.25884 17.3696-12.16435s13.64-4.525725 20.8428-4.767819c7.2029-.242094 14.3841.898689 21.1323 3.356999 6.7528 2.44354 12.9436 6.15654 18.2176 10.92657 5.274 4.77 9.528 10.5033 12.519 16.872 2.99 6.3687 4.659 13.2477 4.91 20.2435.251 6.9957-.921 13.9709-3.448 20.5264l-18.217 47.4708c-2.526 6.553-6.357 12.559-11.2734 17.674-4.9165 5.115-10.8222 9.239-17.3798 12.136-6.5577 2.897-13.6387 4.511-20.8385 4.749-7.1999.239-14.3775-.903-21.1229-3.361z" fill="#ffc09f"/></svg>

<svg width="128" height="155" viewBox="0 0 128 155" fill="none" xmlns="http://www.w3.org/2000/svg">
<path d="M35.6874 150.724C28.9324 148.284 22.7395 144.572 17.4635 139.803C12.1875 135.034 7.93206 129.3 4.94098 122.93C1.94991 116.561 0.281991 109.68 0.0327679 102.684C-0.216455 95.6868 0.957922 88.711 3.48862 82.1559L21.7328 34.7645C24.2453 28.2027 28.0659 22.187 32.9757 17.0619C37.8856 11.9368 43.7881 7.80306 50.3453 4.89755C56.9025 1.99204 63.9853 0.371825 71.1881 0.129731C78.391 -0.112363 85.5722 1.02842 92.3204 3.48673C99.0732 5.93027 105.264 9.64327 110.538 14.4133C115.812 19.1833 120.066 24.9166 123.057 31.2853C126.047 37.654 127.716 44.533 127.967 51.5288C128.218 58.5245 127.046 65.4997 124.519 72.0552L106.302 119.526C103.776 126.079 99.945 132.085 95.0286 137.2C90.1121 142.315 84.2064 146.439 77.6488 149.336C71.0911 152.233 64.0101 153.847 56.8103 154.085C49.6104 154.324 42.4328 153.182 35.6874 150.724Z" fill="#FFC09F"/>
</svg>
